images/blog/pinterest.svg

<svg height="44" viewBox="0 0 44 44" width="44" xmlns="http://www.w3.org/2000/svg"><g fill="none" fill-rule="evenodd"><path d="m2 0h40c1.1045695 0 2 .8954305 2 2v40c0 1.1045695-.8954305 2-2 2h-40c-1.1045695 0-2-.8954305-2-2v-40c0-1.1045695.8954305-2 2-2z" fill="#cb2027"/><path d="m21.2778641 10.080261c-4.0582241.4452146-8.102142 3.6718487-8.269049 8.2809912-.1049129 2.8142247.7081625 4.9254791 3.4335152 5.5183175 1.1826552-2.0503303-.3815017-2.5025746-.624709-3.9858421-.9990576-6.0783506 7.1340815-10.22353262 11.3902097-5.9799347 2.9447161 2.9384162 1.0062107 11.9786153-3.7434853 11.0389782-4.5494076-.8974588 2.2270161-8.0935323-1.4044031-9.5065028-2.9518693-1.148185-4.520795 3.5125087-3.1211607 5.8276245-.8202286 3.9811556-2.5870583 7.7326742-1.8717426 12.7261072 2.3200071-1.6543236 3.1020856-4.8223768 3.7434853-8.1263376 1.1659645.6959406 1.7882891 1.4200001 3.2761457 1.5324754 5.4864711.4170958 8.5504065-5.3824099 7.8017095-10.7320146-.6652436-4.7427068-5.4817024-7.15623847-10.6105157-6.5938622z" fill="#fff" fill-rule="nonzero"/></g></svg>

<?xml version="1.0" encoding="UTF-8"?>
<svg width="44px" height="44px" viewBox="0 0 44 44" version="1.1" xmlns="http://www.w3.org/2000/svg" xmlns:xlink="http://www.w3.org/1999/xlink">
    <!-- Generator: Sketch 49.3 (51167) - http://www.bohemiancoding.com/sketch -->
    <title>pinterest</title>
    <desc>Created with Sketch.</desc>
    <defs></defs>
    <g id="✒️-blog" stroke="none" stroke-width="1" fill="none" fill-rule="evenodd">
        <g id="article" transform="translate(-592.000000, -3472.000000)">
            <g id="newsletter" transform="translate(448.000000, 3420.000000)">
                <g id="info" transform="translate(24.000000, 20.000000)">
                    <g id="pinterest" transform="translate(120.000000, 32.000000)">
                        <path d="M2,0 L42,0 C43.1045695,-2.02906125e-16 44,0.8954305 44,2 L44,42 C44,43.1045695 43.1045695,44 42,44 L2,44 C0.8954305,44 1.3527075e-16,43.1045695 0,42 L0,2 C-1.3527075e-16,0.8954305 0.8954305,2.02906125e-16 2,0 Z" id="Combined-Shape" fill="#CB2027"></path>
                        <path d="M21.2778641,10.080261 C17.21964,10.5254756 13.1757221,13.7521097 13.0088151,18.3612522 C12.9039022,21.1754769 13.7169776,23.2867313 16.4423303,23.8795697 C17.6249855,21.8292394 16.0608286,21.3769951 15.8176213,19.8937276 C14.8185637,13.815377 22.9517028,9.67019498 27.207831,13.9137929 C30.1525471,16.8522091 28.2140417,25.8924082 23.4643457,24.9527711 C18.9149381,24.0553123 25.6913618,16.8592388 22.0599426,15.4462683 C19.1080733,14.2980833 17.5391476,18.958777 18.9387819,21.2738928 C18.1185533,25.2550484 16.3517236,29.006567 17.0670393,34 C19.3870464,32.3456764 20.1691249,29.1776232 20.8105246,25.8736624 C21.9764891,26.569603 22.5988137,27.2936625 24.0866703,27.4061378 C29.5731414,27.8232336 32.6370768,22.0237279 31.8883798,16.6741232 C31.2231362,11.9314164 26.4066774,9.51788473 21.2778641,10.080261 Z" id="Shape" fill="#FFFFFF" fill-rule="nonzero"></path>
                    </g>
                </g>
            </g>
        </g>
    </g>
</svg>
